X:2129
T:Brezon valse
C:ABCB
A:Gentiane
M:3/4
L:1/8
K:C
G2|c2 cB ce|c2 cB ce|c2 cB ce|de f2d2|\
B2 BA Bd|B2 BA Bd|B2 BA Bd|c4:|
|:G2|e2 ed eg|f4 e2|d2 dc df|ef g2e2|\
c2 cB ce|de f2d2|B2 BA Bd|1 ce g2:|2 c4||
|:G2|c2 cB cd|e2d2c2|G2A2B2|A4 G2|\
d2 dc de|f2e2d2|G2A2B2|c4:|


